icons/fill-new-other-sport-soccer.svg

<svg xmlns="http://www.w3.org/2000/svg" width="32px" height="32px" viewBox="0 0 32 32" version="1.1">
    <title>fill-new-other-sport-soccer</title>
    <g id="fill-new-other-sport-soccer" stroke-width="1" fill-rule="evenodd">
        <path d="M16,2 C19.5897818,2 22.8639999,3.35108865 25.3418841,5.57249574 C24.7569257,7.10362824 23.8063784,8.45292869 22.5973893,9.51512134 L23.7646117,11.1496814 C25.0543328,10.0541167 26.1094383,8.69072076 26.8439715,7.14545018 C28.8167495,9.55752044 30,12.6405787 30,16 C30,19.3594213 28.8167495,22.4424796 26.8442764,24.8551472 C26.1094383,23.3092792 25.0543328,21.9458833 23.7646117,20.8503186 L22.5973893,22.4848787 C23.8063784,23.5470713 24.7569257,24.8963718 25.3424979,26.4262467 C22.8639999,28.6489114 19.5897818,30 16,30 C12.4102182,30 9.13600012,28.6489114 6.65811588,26.4275043 C7.24307427,24.8963718 8.19362159,23.5470713 9.40261071,22.4848787 L8.23538833,20.8503186 C6.94566717,21.9458833 5.89056173,23.3092792 5.15602848,24.8545498 C3.18325046,22.4424796 2,19.3594213 2,16 C2,12.6405787 3.18325046,9.55752044 5.15572363,7.14485283 C5.89056173,8.69072076 6.94566717,10.0541167 8.23538833,11.1496814 L9.40261071,9.51512134 C8.19362159,8.45292869 7.24307427,7.10362824 6.65750208,5.57375331 C9.13600012,3.35108865 12.4102182,2 16,2 Z M19.4835683,18.5134472 L19.0629022,20.4777888 C19.732475,20.6929938 20.3712664,20.9768622 20.9709855,21.3211028 L22.1384732,19.6867313 C21.3125016,19.1940521 20.4223565,18.7977806 19.4835683,18.5134472 Z M12.5164317,18.5134472 C11.5776435,18.7977806 10.6874984,19.1940521 9.86152679,19.6867313 L11.0290145,21.3211028 C11.6287336,20.9768622 12.267525,20.6929938 12.9370978,20.4777888 L12.5164317,18.5134472 Z M16,18 C15.4822222,18 14.9721036,18.032793 14.4716079,18.0964154 L14.8921975,20.0606668 C15.2559457,20.0205787 15.6255697,20 16,20 C16.3744303,20 16.7440543,20.0205787 17.1078025,20.0606668 L17.5283921,18.0964154 C17.0278964,18.032793 16.5177778,18 16,18 Z M17.1078025,11.9393332 C16.7440543,11.9794213 16.3744303,12 16,12 C15.6255697,12 15.2559457,11.9794213 14.8921975,11.9393332 L14.4716079,13.9035846 C14.9721036,13.967207 15.4822222,14 16,14 C16.5177778,14 17.0278964,13.967207 17.5283921,13.9035846 L17.1078025,11.9393332 Z M11.0290145,10.6788972 L9.86152679,12.3132687 C10.6874984,12.8059479 11.5776435,13.2022194 12.5164317,13.4865528 L12.9370978,11.5222112 C12.267525,11.3070062 11.6287336,11.0231378 11.0290145,10.6788972 Z M20.9709855,10.6788972 C20.3712664,11.0231378 19.732475,11.3070062 19.0629022,11.5222112 L19.4835683,13.4865528 C20.4223565,13.2022194 21.3125016,12.8059479 22.1384732,12.3132687 L20.9709855,10.6788972 Z" id="&#24418;&#29366;" />
    </g>
</svg>

<svg xmlns="http://www.w3.org/2000/svg" viewBox="0 0 32 32"><path fill="currentColor" d="M16 2c3.59 0 6.864 1.351 9.342 3.572a10.007 10.007 0 0 1-2.745 3.943l1.168 1.635a12.042 12.042 0 0 0 3.079-4.005A13.938 13.938 0 0 1 30 16c0 3.36-1.183 6.442-3.156 8.855a12.043 12.043 0 0 0-3.08-4.005l-1.167 1.635a10.02 10.02 0 0 1 2.745 3.941A13.946 13.946 0 0 1 16 30c-3.59 0-6.864-1.351-9.342-3.572a10.007 10.007 0 0 1 2.745-3.943L8.235 20.85a12.042 12.042 0 0 0-3.079 4.005A13.938 13.938 0 0 1 2 16c0-3.36 1.183-6.442 3.156-8.855a12.043 12.043 0 0 0 3.08 4.005l1.167-1.635a10.02 10.02 0 0 1-2.745-3.941A13.946 13.946 0 0 1 16 2m3.484 16.513-.421 1.965c.67.215 1.308.499 1.908.843l1.167-1.634a11.935 11.935 0 0 0-2.654-1.174m-6.968 0c-.938.285-1.829.681-2.654 1.174l1.167 1.634a9.946 9.946 0 0 1 1.908-.843zM16 18c-.518 0-1.028.033-1.528.096l.42 1.965a10.11 10.11 0 0 1 2.216 0l.42-1.965c-.5-.063-1.01-.096-1.528-.096m1.108-6.06a10.11 10.11 0 0 1-2.216 0l-.42 1.964a12.116 12.116 0 0 0 3.056 0zm-6.079-1.261-1.167 1.634c.825.493 1.716.89 2.654 1.174l.421-1.965a9.946 9.946 0 0 1-1.908-.843m9.942 0c-.6.344-1.239.628-1.908.843l.42 1.965c.94-.285 1.83-.681 2.655-1.174z"/></svg>
